dist/assets/images/quality-arrs.svg

<?xml version="1.0" encoding="UTF-8"?>
<svg width="36px" height="30px" viewBox="0 0 36 30" version="1.1" xmlns="http://www.w3.org/2000/svg" xmlns:xlink="http://www.w3.org/1999/xlink">
    <!-- Generator: Sketch 41.2 (35397) - http://www.bohemiancoding.com/sketch -->
    <title>Page 1</title>
    <desc>Created with Sketch.</desc>
    <defs></defs>
    <g id="LP:-Верстка" stroke="none" stroke-width="1" fill="none" fill-rule="evenodd">
        <g id="Главная-страница-[960]" transform="translate(-650.000000, -3055.000000)" fill="#303132">
            <g id="Group-18-Copy" transform="translate(0.000000, 1783.000000)">
                <g id="Page-1" transform="translate(650.000000, 1272.000000)">
                    <path d="M31.4338235,8.31424138 L27.5735294,14.9644877 L30.3308824,14.9644877 C30.3217647,17.2399064 29.7119118,19.5129606 28.5557353,21.4675419 C27.0116176,24.0875911 24.5177941,26.1042414 21.6363235,27.0441429 L21.6277941,27.0441429 C17.1248529,28.5439951 12.0066176,27.3162118 8.66823529,23.9613842 L7.10867647,25.5286256 C11.0479412,29.4872956 17.0063235,30.9139951 22.3172059,29.1484286 C22.3185294,29.1463596 22.3241176,29.1488719 22.3257353,29.1484286 C25.7263235,28.036064 28.6333824,25.67833 30.4513235,22.5935025 C31.8154412,20.2869015 32.5310294,17.6347833 32.5367647,14.9647833 L35.2941176,14.9647833 L31.4338235,8.31453695 L31.4338235,8.31424138 Z M17.785,0.00143349754 C17.5292647,-0.00181773399 17.2739706,0.000103448276 17.0180882,0.0100049261 C15.6563235,0.06291133 14.2966176,0.313403941 12.9769118,0.754832512 C12.9741176,0.755719212 12.9708824,0.753945813 12.9683824,0.754832512 C9.57161765,1.86571921 6.66970588,4.22153202 4.85132353,7.30118719 C4.84911765,7.30473399 4.84470588,7.30650739 4.84279412,7.30975862 C3.47735294,9.62123645 2.76014706,12.2872463 2.75735294,14.9644877 L0,14.9644877 L3.86029412,21.614734 L7.72058824,14.9644877 L4.96323529,14.9644877 C4.96764706,12.6803498 5.57779412,10.3973941 6.73838235,8.43527586 C8.2825,5.81537438 10.7763235,3.79872414 13.6577941,2.85882266 L13.6663235,2.85882266 L13.6663235,2.85025123 C18.1389706,1.35202463 23.2666176,2.58261576 26.6344118,5.9414335 L28.1854412,4.36532512 C25.3963235,1.58360099 21.6189706,0.05108867 17.785,0.00113793103 L17.785,0.00143349754 Z" id="Fill-1"></path>
                </g>
            </g>
        </g>
    </g>
</svg>

<svg width="36" height="30" viewBox="0 0 36 30" xmlns="http://www.w3.org/2000/svg"><title>Page 1</title><path d="M31.434 8.314l-3.86 6.65h2.757a12.94 12.94 0 0 1-1.775 6.504c-1.544 2.62-4.038 4.636-6.92 5.576h-.008c-4.503 1.5-9.621.272-12.96-3.083l-1.56 1.568c3.94 3.958 9.898 5.385 15.21 3.62 0-.003.006 0 .008 0a14.843 14.843 0 0 0 8.125-6.555 15.09 15.09 0 0 0 2.086-7.63h2.757l-3.86-6.65zM17.785.001a14.516 14.516 0 0 0-4.808.753c-.003.002-.006 0-.009 0C9.572 1.867 6.67 4.223 4.851 7.302c-.002.004-.006.006-.008.009a15.136 15.136 0 0 0-2.086 7.654H0l3.86 6.65 3.86-6.65H4.964a12.94 12.94 0 0 1 1.775-6.529c1.545-2.62 4.038-4.636 6.92-5.576h.008v-.01c4.473-1.498 9.6-.267 12.968 3.091l1.551-1.576A15.058 15.058 0 0 0 17.785.001z" fill="#303132" fill-rule="evenodd"/></svg>
